!!!COM: Anon.
!!!OTL: Rapazes eu vou te contar
!!!OTL: Romanceiro Folclorico do Brasil
!!!CNT: Brasil
!!!OCY: Brasil
!!!ODT: <1971///
!!!PSR: Irmaos Vitale
!!!PSP: Sao Paulo, Brasil
!!!PDT: 1949///
!!!PPE: Rossini Tavares de Lima
!!!PPG: page 70
!! Romance: Donzela
!! Place: Friburgo, Estado do Rio, Brasil
**kern
*clefG2
*k[b-e-a-]
*M3/4
*MM112
4G
=
4c
8c
8d
8e-
8c
=
2g
4g
=
4a-
8f
8g
8a-
8a-
=
4g
4g
4g
=
4g
8d
8e-
8f
8g
=
4d
4c
4d
=
4g
8d
8f
8e-
8d
=
4c
4c
==
*-
